X: 2025
T: Minuet.
%R: minuet, waltz
B: Henry Playford "Apollo's Banquet", London 1687 (5th Edition)
F: https://archive.org/details/apollosbanquetco01rugg
Z: 2017 John Chambers <jc:trillian.mit.edu>
M: 3/2
L: 1/8
K: C
% - - - - - - - - - -
|:\
e2c2g2 f2e3f | g2e2a2 edefd2 |\
e2c2g2 f2e3f | g2e2a2 d6 ::\
g2d2g2 f2d4 | e2efg2 c2cde2 |\
d2B2G2 c2A2e2 | f2d2g2 c6 |]
% - - - - - - - - - -

%%sep 1 1 500
%%sep 1 1 500

